X: 163
T:Fiddlers Green
M:3/4
R:waltz
L:1/8
Z:Alf Warnock - alf0@rogers.com
K:C
G,2|"C"C3D E2|"F"F3E D2|"C"C2 D2 E2|"Am"A,6-|A,4G,2|
"C"C3D E2|"F"F2 G2 A2|"C"G2 E2 C2|"G7"D6-|D4 EE|
"F"F3G A2|A2 G2 F2|"C"E2 F2 G2|G6-|G4 FF|
"C"E2 D2 E2|"F"F2 E2 D2|"C"C2 B,2 C2|"G7"D6-|D4 GF|
"C"E3D E2|"G7"F2 D2 B,2|"C"D2 C4-|C4 G2|
"F"A3A A2|"C"G2 E2C2|"G7"D6-|D4 E2|
"F"F3G A2|A2 G2 F2|"C"E2 F2 G2|G2 F2 E2|
"Dm"D3E F2|G2 F2 E2|"G7"D2 E2 D2|"C"C6-|C6|

